icons/box-block.svg

<svg xmlns="http://www.w3.org/2000/svg" viewBox="0 0 24 24" fill="currentColor">
  <path d="M3.75 7c0-1.78579 1.46421-3.25 3.25-3.25h1.25V7.5c0 1.21421 1.03579 2.25 2.25 2.25h3c1.2142 0 2.25-1.03579 2.25-2.25V3.75H17c1.7858 0 3.25 1.46421 3.25 3.25v5c0 .4142.3358.75.75.75s.75-.3358.75-.75V7c0-2.61421-2.1358-4.75-4.75-4.75H7C4.38579 2.25 2.25 4.38579 2.25 7v10c0 2.6142 2.13579 4.75 4.75 4.75.41421 0 .75-.3358.75-.75s-.33579-.75-.75-.75c-1.78579 0-3.25-1.4642-3.25-3.25V7Zm6-3.25V7.5c0 .38579.3642.75.75.75h3c.3858 0 .75-.36421.75-.75V3.75h-4.5Zm7.0355 11.3042c-.9944-.5893-2.3278-.4511-3.2552.4763l-.0098.0098-.0102.0095c-.892.8283-1.0602 2.1551-.4419 3.2215l3.7171-3.7171Zm1.0462 1.0752-3.7149 3.7148c1.0185.5954 2.3994.444 3.2336-.4543l.0189-.0204.0203-.0189c.892-.8282 1.0602-2.1548.4421-3.2212Zm.6084-1.6497c-1.6052-1.7173-4.2818-1.6882-5.9607-.0196-1.7172 1.6052-1.6881 4.2818-.0195 5.9607 1.592 1.7025 4.3739 1.7059 5.9707.0101 1.707-1.6062 1.6748-4.2756.0095-5.9512Z"/>
</svg>

<svg width="24" height="24" viewBox="0 0 24 24" fill="none" xmlns="http://www.w3.org/2000/svg">
<path fill-rule="evenodd" clip-rule="evenodd" d="M3.75 7C3.75 5.21421 5.21421 3.75 7 3.75H8.25V7.5C8.25 8.71421 9.28579 9.75 10.5 9.75H13.5C14.7142 9.75 15.75 8.71421 15.75 7.5V3.75H17C18.7858 3.75 20.25 5.21421 20.25 7V12C20.25 12.4142 20.5858 12.75 21 12.75C21.4142 12.75 21.75 12.4142 21.75 12V7C21.75 4.38579 19.6142 2.25 17 2.25H15H9H7C4.38579 2.25 2.25 4.38579 2.25 7V17C2.25 19.6142 4.38579 21.75 7 21.75C7.41421 21.75 7.75 21.4142 7.75 21C7.75 20.5858 7.41421 20.25 7 20.25C5.21421 20.25 3.75 18.7858 3.75 17V7ZM9.75 3.75V7.5C9.75 7.88579 10.1142 8.25 10.5 8.25H13.5C13.8858 8.25 14.25 7.88579 14.25 7.5V3.75H9.75ZM16.7855 15.0542C15.7911 14.4649 14.4577 14.6031 13.5303 15.5305L13.5205 15.5403L13.5103 15.5498C12.6183 16.3781 12.4501 17.7049 13.0684 18.7713L16.7855 15.0542ZM17.8317 16.1294L14.1168 19.8442C15.1353 20.4396 16.5162 20.2882 17.3504 19.3899L17.3693 19.3695L17.3896 19.3506C18.2816 18.5224 18.4498 17.1958 17.8317 16.1294ZM18.4401 14.4797C16.8349 12.7624 14.1583 12.7915 12.4794 14.4601C10.7622 16.0653 10.7913 18.7419 12.4599 20.4208C14.0519 22.1233 16.8338 22.1267 18.4306 20.4309C20.1376 18.8247 20.1054 16.1553 18.4401 14.4797Z" fill="black"/>
</svg>
